dist/flags/l/524.svg

<svg width="32" height="24" viewBox="0 0 32 24" fill="none" xmlns="http://www.w3.org/2000/svg">
<rect width="32" height="24" fill="white"/>
<path d="M11.6159 12.3201L20.9325 23.5H0.5V0.842271L20.0392 11.5H12H10.9325L11.6159 12.3201Z" fill="#C51918" stroke="#4857A1"/>
<mask id="mask0" mask-type="alpha" maskUnits="userSpaceOnUse" x="0" y="0" width="22" height="24">
<path d="M11.6159 12.3201L20.9325 23.5H0.5V0.842271L20.0392 11.5H12H10.9325L11.6159 12.3201Z" fill="white" stroke="white"/>
</mask>
<g mask="url(#mask0)">
<path fill-rule="evenodd" clip-rule="evenodd" d="M5.82963 20.0102L4.60446 21.6003L4.54791 19.5938L2.6221 20.16L3.75576 18.5035L1.86491 17.8296L3.75576 17.1558L2.6221 15.4992L4.54791 16.0655L4.60446 14.059L5.82963 15.649L7.0548 14.059L7.11135 16.0655L9.03716 15.4992L7.9035 17.1558L9.79435 17.8296L7.9035 18.5035L9.03716 20.16L7.11135 19.5938L7.0548 21.6003L5.82963 20.0102Z" fill="#F7FCFF"/>
<path fill-rule="evenodd" clip-rule="evenodd" d="M5.80005 8.1388L5.16021 8.96921L5.13068 7.92131L4.12494 8.21704L4.71698 7.35191L3.7295 7L4.71698 6.64809L4.12494 5.78296L5.13068 6.07869L5.16021 5.03079L5.80005 5.8612L6.43988 5.03079L6.46942 6.07869L7.47516 5.78296L6.88312 6.64809L7.8706 7L6.88312 7.35191L7.47516 8.21704L6.46942 7.92131L6.43988 8.96921L5.80005 8.1388Z" fill="#F7FCFF"/>
<path fill-rule="evenodd" clip-rule="evenodd" d="M5.66606 7.89414C7.89237 7.90303 9.07938 6.64004 9.07938 6.64004C9.3142 8.0812 7.50118 9.04004 5.68776 9.04004C3.87433 9.04004 2.77639 7.73302 2.09998 6.64004C2.09998 6.64004 3.43974 7.88525 5.66606 7.89414Z" fill="#F9FAFA"/>
</g>
</svg>

<svg width="32" height="24" fill="none" xmlns="http://www.w3.org/2000/svg">
  <path fill="#fff" d="M0 0h32v24H0z"/>
  <path d="M11.616 12.32l9.317 11.18H.5V.842L20.04 11.5h-9.109l.684.82z" fill="#C51918" stroke="#4857A1"/>
  <mask id="a" maskUnits="userSpaceOnUse" x="0" y="0" width="22" height="24">
    <path d="M11.616 12.32l9.317 11.18H.5V.842L20.04 11.5h-9.109l.684.82z" fill="#fff" stroke="#fff"/>
  </mask>
  <g mask="url(#a)" fill-rule="evenodd" clip-rule="evenodd">
    <path d="M5.83 20.01L4.604 21.6l-.056-2.006-1.926.566 1.134-1.657-1.891-.673 1.89-.674-1.133-1.657 1.926.566.056-2.006 1.226 1.59 1.225-1.59.056 2.007 1.926-.567-1.134 1.657 1.891.674-1.89.674 1.133 1.656-1.926-.566-.056 2.006-1.225-1.59zM5.8 8.139l-.64.83-.03-1.048-1.005.296.592-.865L3.73 7l.987-.352-.592-.865 1.006.296.03-1.048.64.83.639-.83.03 1.048 1.005-.296-.592.865.988.352-.988.352.592.865-1.006-.296-.03 1.048-.639-.83z" fill="#F7FCFF"/>
    <path d="M5.666 7.894C7.892 7.903 9.08 6.64 9.08 6.64c.235 1.441-1.578 2.4-3.391 2.4-1.814 0-2.912-1.307-3.588-2.4 0 0 1.34 1.245 3.566 1.254z" fill="#F9FAFA"/>
  </g>
</svg>
